X:285
T:Steirer (83.)
C:traditionell
A:Salzkammergut
S:MIDI erhalten von Christian Amon. Nach einer kopie im besitz von Johann Stoeckl eines manuscriptes. Stoeckl(zitiert von Amon): "diese sammlung wurde 1935 im hause der familie Hohenlohe-Schillingfuerst gefunden. Sie wurde von einem der beiden brueder Steinegger 1866 verfasst. Die originale sind im Ausseer Kammerhofmuseum".
M:3/4
L:1/8
K:G
V:1
c3 d a2 | B3 d g2 | c3 d f2 | g3 d B2 |\
c3 d a2 | B3 d g2 | c3 d f2 | g4 z2 |*
V:2
d3 f c'2 | d3 g b2 | d3 f a2 | b3 g d2 |\
d3 f c'2 | d3 g b2 | d3 f a2 | b4 z2 |*
